images/Exercism_files/instructions-9600acff7c3b15930263c8cdd8c35d46960bd924.svg

<svg fill="none" height="18" viewBox="0 0 18 18" width="18" xmlns="http://www.w3.org/2000/svg"><g stroke="#000" stroke-linecap="round" stroke-linejoin="round" stroke-width="1.5"><path clip-rule="evenodd" d="m1.5 4c0-.82843.67157-1.5 1.5-1.5h12c.8284 0 1.5.67157 1.5 1.5v11c0 .8284-.6716 1.5-1.5 1.5h-12c-.82843 0-1.5-.6716-1.5-1.5z" fill-rule="evenodd"/><path d="m4.5 1.5v2"/><path d="m13.5 1.5v2"/><path d="m9.5 13h3"/><path d="m9.5 8h3"/><path d="m7.6 11.2-2.1 2.8-1.5-1.5"/><path d="m7.6 6-2.1 2.8-1.5-1.5"/></g></svg>

<svg width="18" height="18" viewBox="0 0 18 18" fill="none" xmlns="http://www.w3.org/2000/svg">
<path fill-rule="evenodd" clip-rule="evenodd" d="M1.5 4C1.5 3.17157 2.17157 2.5 3 2.5H15C15.8284 2.5 16.5 3.17157 16.5 4V15C16.5 15.8284 15.8284 16.5 15 16.5H3C2.17157 16.5 1.5 15.8284 1.5 15V4Z" stroke="#000000" stroke-width="1.5" stroke-linecap="round" stroke-linejoin="round"/>
<path d="M4.5 1.5V3.5" stroke="#000000" stroke-width="1.5" stroke-linecap="round" stroke-linejoin="round"/>
<path d="M13.5 1.5V3.5" stroke="#000000" stroke-width="1.5" stroke-linecap="round" stroke-linejoin="round"/>
<path d="M9.5 13H12.5" stroke="#000000" stroke-width="1.5" stroke-linecap="round" stroke-linejoin="round"/>
<path d="M9.5 8H12.5" stroke="#000000" stroke-width="1.5" stroke-linecap="round" stroke-linejoin="round"/>
<path d="M7.6 11.2L5.5 14L4 12.5" stroke="#000000" stroke-width="1.5" stroke-linecap="round" stroke-linejoin="round"/>
<path d="M7.6 6L5.5 8.8L4 7.3" stroke="#000000" stroke-width="1.5" stroke-linecap="round" stroke-linejoin="round"/>
</svg>
